images/hero/full stack.svg

<svg width="25" height="29" viewBox="0 0 25 29" fill="none" xmlns="http://www.w3.org/2000/svg">
<path fill-rule="evenodd" clip-rule="evenodd" d="M12.3284 0.821533C11.9566 0.821533 11.5952 0.898418 11.2755 1.0794L1.1545 6.9242C0.499536 7.30129 0.101562 8.01408 0.101562 8.77218V20.4403C0.101562 21.198 0.499536 21.91 1.1545 22.2882L3.79754 23.814C5.08168 24.4468 5.55529 24.4371 6.13977 24.4371C8.04105 24.4371 9.12662 23.2834 9.12662 21.2783V9.76064C9.12662 9.59781 8.98567 9.48126 8.8258 9.48126H7.55798C7.39553 9.48126 7.25714 9.59781 7.25714 9.76064V21.2783C7.25714 22.1671 6.33144 23.0609 4.82898 22.3098L2.0785 20.6982C1.98137 20.6452 1.90658 20.5518 1.90658 20.4403V8.77218C1.90658 8.66141 1.98051 8.54891 2.0785 8.49287L12.178 2.66953C12.2725 2.61521 12.3851 2.61521 12.4788 2.66953L22.5783 8.49287C22.6745 8.55063 22.7502 8.65804 22.7502 8.77218V20.4403C22.7502 20.5518 22.6943 20.6659 22.5998 20.7196L12.4788 26.543C12.392 26.5946 12.2725 26.5946 12.178 26.543L9.57788 24.9958C9.50052 24.9505 9.39479 24.9539 9.32001 24.9958C8.60231 25.4027 8.46737 25.45 7.79436 25.6835C7.62847 25.7412 7.37662 25.8311 7.88031 26.1132L11.2755 28.1116C11.5986 28.2986 11.9588 28.3909 12.3284 28.3909C12.7031 28.3909 13.0581 28.2986 13.3813 28.1116L23.5023 22.2882C24.1572 21.9073 24.5552 21.198 24.5552 20.4403V8.77218C24.5552 8.01408 24.1572 7.30288 23.5023 6.9242L13.3813 1.0794C13.0641 0.898418 12.7001 0.821533 12.3284 0.821533ZM15.0359 9.15912C12.1539 9.15912 10.4374 10.3856 10.4374 12.4253C10.4374 14.638 12.141 15.246 14.907 15.5196C18.2161 15.8436 18.474 16.3294 18.474 16.9808C18.474 18.1107 17.5732 18.5924 15.4442 18.5924C12.7693 18.5924 12.1814 17.9247 11.9846 16.594C11.9614 16.4514 11.8513 16.3362 11.7052 16.3362H10.3944C10.2328 16.3362 10.0936 16.4751 10.0936 16.637C10.0936 18.3403 11.0202 20.3545 15.4442 20.3545C18.6468 20.3545 20.4939 19.0974 20.4939 16.8949C20.4939 14.7114 19.0018 14.1253 15.8954 13.7146C12.7564 13.2993 12.4573 13.096 12.4573 12.3609C12.4573 11.7541 12.7109 10.9426 15.0359 10.9426C17.1125 10.9426 17.8801 11.3904 18.1947 12.7907C18.2222 12.9223 18.3382 13.027 18.474 13.027H19.7848C19.8656 13.027 19.9438 12.9775 19.9997 12.9195C20.0547 12.8576 20.0934 12.7879 20.0856 12.7047C19.8828 10.2933 18.2746 9.15912 15.0359 9.15912Z" fill="#83CD29"/>
</svg>

<svg xmlns="http://www.w3.org/2000/svg" width="25" height="29" fill="none"><path fill="#83CD29" fill-rule="evenodd" d="M12.3.8c-.3 0-.7.1-1 .3L1.2 6.9C.5 7.3 0 8 0 8.8v11.6c0 .8.4 1.5 1 1.9l2.7 1.5c1.3.6 1.8.6 2.3.6 2 0 3-1.1 3-3.1V9.8c0-.2-.1-.3-.3-.3H7.6c-.2 0-.3.1-.3.3v11.5c0 .9-1 1.8-2.5 1l-2.7-1.6c-.1 0-.2-.1-.2-.3V8.8c0-.1 0-.3.2-.3l10-5.8h.4l10 5.8c.2 0 .3.2.3.3v11.6c0 .2-.1.3-.2.3l-10.1 5.8h-.3L9.6 25h-.3l-1.5.7c-.2 0-.4.1 0 .4l3.5 2a2 2 0 0 0 2 0l10.2-5.8c.7-.4 1-1.1 1-1.9V8.8c0-.8-.3-1.5-1-1.9L13.4 1.1c-.3-.2-.7-.3-1-.3ZM15 9.2c-2.8 0-4.6 1.2-4.6 3.2 0 2.2 1.7 2.8 4.5 3.1 3.3.3 3.6.8 3.6 1.5 0 1.1-1 1.6-3 1.6-2.7 0-3.3-.7-3.5-2 0-.1-.1-.3-.3-.3h-1.3c-.2 0-.3.2-.3.3 0 1.7 1 3.8 5.3 3.8 3.2 0 5-1.3 5-3.5S19 14 16 13.7c-3.1-.4-3.4-.6-3.4-1.3 0-.6.2-1.5 2.5-1.5 2.1 0 2.9.5 3.2 1.9 0 .1.1.2.3.2H20v-.3c-.1-2.4-1.7-3.5-5-3.5Z" clip-rule="evenodd"/></svg>
